X:1
T:THE UNHAPPY SAILOR
M:4/4
Q:1/4=120
K:F
F4E/2D2A3/2|-A5/2EFD7/2|-D5/2c3/2d/2c7/2|
-c5/2BcA7/2|-A5/2ccd7/2|-d/2c2d2BAGF/2|-F/2EDFGA7/2|
-A5/2EFD7/2|-D5/2FGA2f3/2|-f/2_d2e2d7/2||
